dist/assets/images/tg.svg

<svg width="54" height="54" viewBox="0 0 54 54" fill="none" xmlns="http://www.w3.org/2000/svg">
<g id="Group">
<path id="Vector" fill-rule="evenodd" clip-rule="evenodd" d="M45.1316 7.27365C45.7095 7.03135 46.342 6.94778 46.9633 7.03164C47.5846 7.11551 48.1719 7.36374 48.6643 7.7505C49.1566 8.13726 49.5359 8.64841 49.7626 9.23075C49.9893 9.81309 50.0552 10.4453 49.9535 11.0617L44.6499 43.1106C44.1354 46.2021 40.7306 47.9749 37.8847 46.435C35.5042 45.1467 31.9685 43.1619 28.7882 41.0908C27.198 40.0541 22.327 36.7344 22.9257 34.3721C23.4401 32.3523 31.6247 24.7623 36.3016 20.2498C38.1373 18.4769 37.3001 17.4542 35.1324 19.085C29.7469 23.1339 21.1064 29.2912 18.2488 31.0244C15.7279 32.5527 14.4137 32.8136 12.8423 32.5527C9.97533 32.0774 7.31652 31.3413 5.14644 30.4443C2.21402 29.2329 2.35666 25.2166 5.1441 24.0471L45.1316 7.27365Z" fill="white"/>
</g>
</svg>

<svg width="54" height="54" fill="none" xmlns="http://www.w3.org/2000/svg"><path fill-rule="evenodd" clip-rule="evenodd" d="M45.132 7.274a3.52 3.52 0 0 1 3.532.476 3.495 3.495 0 0 1 1.29 3.312L44.65 43.11c-.515 3.091-3.92 4.864-6.765 3.324-2.38-1.288-5.916-3.273-9.097-5.344-1.59-1.037-6.461-4.357-5.862-6.719.514-2.02 8.699-9.61 13.376-14.122 1.835-1.773.998-2.796-1.17-1.165-5.385 4.049-14.026 10.206-16.883 11.94-2.521 1.528-3.835 1.789-5.407 1.528-2.867-.476-5.525-1.212-7.696-2.109-2.932-1.211-2.79-5.227-.002-6.397L45.132 7.274Z" fill="#fff"/></svg>
